static/img/kroki/9bad2d10b17ec5be7d8fef3926ea27f2.svg

<?xml version="1.0" encoding="us-ascii" standalone="no"?><svg xmlns="http://www.w3.org/2000/svg" xmlns:xlink="http://www.w3.org/1999/xlink" contentStyleType="text/css" height="705px" preserveAspectRatio="none" style="width:884px;height:705px;" version="1.1" viewBox="0 0 884 705" width="884px" zoomAndPan="magnify"><defs/><g><!--class autoscaling_group--><g id="elem_autoscaling_group"><rect codeLine="23" fill="#3D176E" height="100.3828" id="autoscaling_group" rx="2.5" ry="2.5" style="stroke:#000D19;stroke-width:0.5;" width="194" x="381" y="438.76"/><ellipse cx="396" cy="458.6545" fill="#ADD1B2" rx="11" ry="11" style="stroke:#181818;stroke-width:1.0;"/><path d="M398.9688,464.2952 Q398.3906,464.592 397.75,464.7327 Q397.1094,464.8889 396.4063,464.8889 Q393.9063,464.8889 392.5781,463.2483 Q391.2656,461.592 391.2656,458.467 Q391.2656,455.342 392.5781,453.6858 Q393.9063,452.0295 396.4063,452.0295 Q397.1094,452.0295 397.75,452.1858 Q398.4063,452.342 398.9688,452.6389 L398.9688,455.3577 Q398.3438,454.7795 397.75,454.5139 Q397.1563,454.2327 396.5313,454.2327 Q395.1875,454.2327 394.5,455.3108 Q393.8125,456.3733 393.8125,458.467 Q393.8125,460.5608 394.5,461.6389 Q395.1875,462.7014 396.5313,462.7014 Q397.1563,462.7014 397.75,462.4358 Q398.3438,462.1545 398.9688,461.5764 L398.9688,464.2952 Z " fill="#000000"/><text fill="#D9B8FF" font-family="Helvetica" font-size="17" lengthAdjust="spacing" textLength="152" x="415" y="464.5398">autoscaling_group</text><line style="stroke:#000D19;stroke-width:0.5;" x1="382" x2="574" y1="478.5491" y2="478.5491"/><text fill="#D9B8FF" font-family="sans-serif" font-size="14" font-weight="bold" lengthAdjust="spacing" textLength="71" x="392" y="500.5442">max_size</text><text fill="#D9B8FF" font-family="sans-serif" font-size="14" lengthAdjust="spacing" textLength="44" x="463" y="500.5442">: int64</text><text fill="#D9B8FF" font-family="sans-serif" font-size="14" font-weight="bold" lengthAdjust="spacing" textLength="67" x="392" y="526.8411">min_size</text><text fill="#D9B8FF" font-family="sans-serif" font-size="14" lengthAdjust="spacing" textLength="44" x="459" y="526.8411">: int64</text></g><!--class aws_autoscaling_group--><g id="elem_aws_autoscaling_group"><rect codeLine="27" fill="#3D176E" height="39.7891" id="aws_autoscaling_group" rx="2.5" ry="2.5" style="stroke:#000D19;stroke-width:0.5;" width="236" x="7" y="660.14"/><ellipse cx="22" cy="680.0345" fill="#ADD1B2" rx="11" ry="11" style="stroke:#181818;stroke-width:1.0;"/><path d="M24.9688,685.6752 Q24.3906,685.972 23.75,686.1127 Q23.1094,686.2689 22.4063,686.2689 Q19.9063,686.2689 18.5781,684.6283 Q17.2656,682.972 17.2656,679.847 Q17.2656,676.722 18.5781,675.0658 Q19.9063,673.4095 22.4063,673.4095 Q23.1094,673.4095 23.75,673.5658 Q24.4063,673.722 24.9688,674.0189 L24.9688,676.7377 Q24.3438,676.1595 23.75,675.8939 Q23.1563,675.6127 22.5313,675.6127 Q21.1875,675.6127 20.5,676.6908 Q19.8125,677.7533 19.8125,679.847 Q19.8125,681.9408 20.5,683.0189 Q21.1875,684.0814 22.5313,684.0814 Q23.1563,684.0814 23.75,683.8158 Q24.3438,683.5345 24.9688,682.9564 L24.9688,685.6752 Z " fill="#000000"/><text fill="#D9B8FF" font-family="Helvetica" font-size="17" lengthAdjust="spacing" textLength="194" x="41" y="685.9198">aws_autoscaling_group</text></g><!--class azure_compute_virtual_machine_scale_set--><g id="elem_azure_compute_virtual_machine_scale_set"><rect codeLine="30" fill="#3D176E" height="39.7891" id="azure_compute_virtual_machine_scale_set" rx="2.5" ry="2.5" style="stroke:#000D19;stroke-width:0.5;" width="399" x="278.5" y="660.14"/><ellipse cx="293.5" cy="680.0345" fill="#ADD1B2" rx="11" ry="11" style="stroke:#181818;stroke-width:1.0;"/><path d="M296.4688,685.6752 Q295.8906,685.972 295.25,686.1127 Q294.6094,686.2689 293.9063,686.2689 Q291.4063,686.2689 290.0781,684.6283 Q288.7656,682.972 288.7656,679.847 Q288.7656,676.722 290.0781,675.0658 Q291.4063,673.4095 293.9063,673.4095 Q294.6094,673.4095 295.25,673.5658 Q295.9063,673.722 296.4688,674.0189 L296.4688,676.7377 Q295.8438,676.1595 295.25,675.8939 Q294.6563,675.6127 294.0313,675.6127 Q292.6875,675.6127 292,676.6908 Q291.3125,677.7533 291.3125,679.847 Q291.3125,681.9408 292,683.0189 Q292.6875,684.0814 294.0313,684.0814 Q294.6563,684.0814 295.25,683.8158 Q295.8438,683.5345 296.4688,682.9564 L296.4688,685.6752 Z " fill="#000000"/><text fill="#D9B8FF" font-family="Helvetica" font-size="17" lengthAdjust="spacing" textLength="357" x="312.5" y="685.9198">azure_compute_virtual_machine_scale_set</text></g><!--class gcp_autoscaler--><g id="elem_gcp_autoscaler"><rect codeLine="33" fill="#3D176E" height="39.7891" id="gcp_autoscaler" rx="2.5" ry="2.5" style="stroke:#000D19;stroke-width:0.5;" width="165" x="712.5" y="660.14"/><ellipse cx="727.5" cy="680.0345" fill="#ADD1B2" rx="11" ry="11" style="stroke:#181818;stroke-width:1.0;"/><path d="M730.4688,685.6752 Q729.8906,685.972 729.25,686.1127 Q728.6094,686.2689 727.9063,686.2689 Q725.4063,686.2689 724.0781,684.6283 Q722.7656,682.972 722.7656,679.847 Q722.7656,676.722 724.0781,675.0658 Q725.4063,673.4095 727.9063,673.4095 Q728.6094,673.4095 729.25,673.5658 Q729.9063,673.722 730.4688,674.0189 L730.4688,676.7377 Q729.8438,676.1595 729.25,675.8939 Q728.6563,675.6127 728.0313,675.6127 Q726.6875,675.6127 726,676.6908 Q725.3125,677.7533 725.3125,679.847 Q725.3125,681.9408 726,683.0189 Q726.6875,684.0814 728.0313,684.0814 Q728.6563,684.0814 729.25,683.8158 Q729.8438,683.5345 730.4688,682.9564 L730.4688,685.6752 Z " fill="#000000"/><text fill="#D9B8FF" font-family="Helvetica" font-size="17" lengthAdjust="spacing" textLength="123" x="746.5" y="685.9198">gcp_autoscaler</text></g><!--class resource--><g id="elem_resource"><rect codeLine="36" fill="#3D176E" height="310.7578" id="resource" rx="2.5" ry="2.5" style="stroke:#000D19;stroke-width:0.5;" width="227" x="364.5" y="7"/><ellipse cx="433.25" cy="26.8945" fill="#ADD1B2" rx="11" ry="11" style="stroke:#181818;stroke-width:1.0;"/><path d="M436.2188,32.5352 Q435.6406,32.832 435,32.9727 Q434.3594,33.1289 433.6563,33.1289 Q431.1563,33.1289 429.8281,31.4883 Q428.5156,29.832 428.5156,26.707 Q428.5156,23.582 429.8281,21.9258 Q431.1563,20.2695 433.6563,20.2695 Q434.3594,20.2695 435,20.4258 Q435.6563,20.582 436.2188,20.8789 L436.2188,23.5977 Q435.5938,23.0195 435,22.7539 Q434.4063,22.4727 433.7813,22.4727 Q432.4375,22.4727 431.75,23.5508 Q431.0625,24.6133 431.0625,26.707 Q431.0625,28.8008 431.75,29.8789 Q432.4375,30.9414 433.7813,30.9414 Q434.4063,30.9414 435,30.6758 Q435.5938,30.3945 436.2188,29.8164 L436.2188,32.5352 Z " fill="#000000"/><text fill="#D9B8FF" font-family="Helvetica" font-size="17" lengthAdjust="spacing" textLength="71" x="458.75" y="32.7798">resource</text><line style="stroke:#000D19;stroke-width:0.5;" x1="365.5" x2="590.5" y1="46.7891" y2="46.7891"/><text fill="#D9B8FF" font-family="sans-serif" font-size="14" font-weight="bold" lengthAdjust="spacing" textLength="29" x="375.5" y="68.7842">age</text><text fill="#D9B8FF" font-family="sans-serif" font-size="14" lengthAdjust="spacing" textLength="66" x="404.5" y="68.7842">: duration</text><text fill="#D9B8FF" font-family="sans-serif" font-size="14" font-weight="bold" lengthAdjust="spacing" textLength="43" x="375.5" y="95.0811">atime</text><text fill="#D9B8FF" font-family="sans-serif" font-size="14" lengthAdjust="spacing" textLength="70" x="418.5" y="95.0811">: datetime</text><text fill="#D9B8FF" font-family="sans-serif" font-size="14" font-weight="bold" lengthAdjust="spacing" textLength="43" x="375.5" y="121.3779">ctime</text><text fill="#D9B8FF" font-family="sans-serif" font-size="14" lengthAdjust="spacing" textLength="70" x="418.5" y="121.3779">: datetime</text><text fill="#D9B8FF" font-family="sans-serif" font-size="14" font-weight="bold" lengthAdjust="spacing" textLength="14" x="375.5" y="147.6748">id</text><text fill="#D9B8FF" font-family="sans-serif" font-size="14" lengthAdjust="spacing" textLength="48" x="389.5" y="147.6748">: string</text><text fill="#D9B8FF" font-family="sans-serif" font-size="14" font-weight="bold" lengthAdjust="spacing" textLength="33" x="375.5" y="173.9717">kind</text><text fill="#D9B8FF" font-family="sans-serif" font-size="14" lengthAdjust="spacing" textLength="48" x="408.5" y="173.9717">: string</text><text fill="#D9B8FF" font-family="sans-serif" font-size="14" font-weight="bold" lengthAdjust="spacing" textLength="90" x="375.5" y="200.2686">last_access</text><text fill="#D9B8FF" font-family="sans-serif" font-size="14" lengthAdjust="spacing" textLength="66" x="465.5" y="200.2686">: duration</text><text fill="#D9B8FF" font-family="sans-serif" font-size="14" font-weight="bold" lengthAdjust="spacing" textLength="90" x="375.5" y="226.5654">last_update</text><text fill="#D9B8FF" font-family="sans-serif" font-size="14" lengthAdjust="spacing" textLength="66" x="465.5" y="226.5654">: duration</text><text fill="#D9B8FF" font-family="sans-serif" font-size="14" font-weight="bold" lengthAdjust="spacing" textLength="48" x="375.5" y="252.8623">mtime</text><text fill="#D9B8FF" font-family="sans-serif" font-size="14" lengthAdjust="spacing" textLength="70" x="423.5" y="252.8623">: datetime</text><text fill="#D9B8FF" font-family="sans-serif" font-size="14" font-weight="bold" lengthAdjust="spacing" textLength="43" x="375.5" y="279.1592">name</text><text fill="#D9B8FF" font-family="sans-serif" font-size="14" lengthAdjust="spacing" textLength="48" x="418.5" y="279.1592">: string</text><text fill="#D9B8FF" font-family="sans-serif" font-size="14" font-weight="bold" lengthAdjust="spacing" textLength="34" x="375.5" y="305.4561">tags</text><text fill="#D9B8FF" font-family="sans-serif" font-size="14" lengthAdjust="spacing" textLength="171" x="409.5" y="305.4561">: dictionary[string, string]</text></g><!--reverse link resource to autoscaling_group--><g id="link_resource_autoscaling_group"><path codeLine="48" d="M478,336.06 C478,379.65 478,405.98 478,438.42 " fill="none" id="resource-backto-autoscaling_group" style="stroke:#FFAF37;stroke-width:2.0;"/><polygon fill="none" points="478,318.06,472,336.06,484,336.06,478,318.06" style="stroke:#FFAF37;stroke-width:2.0;"/></g><!--reverse link autoscaling_group to aws_autoscaling_group--><g id="link_autoscaling_group_aws_autoscaling_group"><path codeLine="49" d="M369.383,548.1293 C296.053,587.4093 213.47,631.64 161.19,659.65 " fill="none" id="autoscaling_group-backto-aws_autoscaling_group" style="stroke:#FFAF37;stroke-width:2.0;"/><polygon fill="none" points="385.25,539.63,366.5499,542.8403,372.2161,553.4183,385.25,539.63" style="stroke:#FFAF37;stroke-width:2.0;"/></g><!--reverse link autoscaling_group to azure_compute_virtual_machine_scale_set--><g id="link_autoscaling_group_azure_compute_virtual_machine_scale_set"><path codeLine="50" d="M478,557.63 C478,597.02 478,631.94 478,659.89 " fill="none" id="autoscaling_group-backto-azure_compute_virtual_machine_scale_set" style="stroke:#FFAF37;stroke-width:2.0;"/><polygon fill="none" points="478,539.63,472,557.63,484,557.63,478,539.63" style="stroke:#FFAF37;stroke-width:2.0;"/></g><!--reverse link autoscaling_group to gcp_autoscaler--><g id="link_autoscaling_group_gcp_autoscaler"><path codeLine="51" d="M576.7486,548.8512 C642.5986,588.1312 715.55,631.64 762.51,659.65 " fill="none" id="autoscaling_group-backto-gcp_autoscaler" style="stroke:#FFAF37;stroke-width:2.0;"/><polygon fill="none" points="561.29,539.63,573.6749,554.0041,579.8224,543.6983,561.29,539.63" style="stroke:#FFAF37;stroke-width:2.0;"/></g><!--SRC=[ZPFBRjim44Nt-We2sHanOEVbkEWcCL0qcw1ekYiAOKoEPC8YAGn7SPss_rxISbnQafDk1EdEcJiFKYkjKA2fUIiCcYMIp_nQsne8ZBWZSfk5gno9iwA0udBM3Nvobjy57i6W-8pLCxAMq2M-hRHSM_HUN2IXUv3habnZLMlF1DQ745fEg4K5tjynarusZ4apQhwyBOeksJKzkrJJsGtsC4SAQOzC9XCrdNUHTqkzEVU1UD8lAARfqXuTOw_DNeaTzMQNaKYQx0tw6Z_PunTGIjjIN2VQrxOdiaX7-jCAbDj4ke3AfsKy8w7ZROsBtbGulrN5R11-E0LdCgvEGCFEIwX2oJnYjVYLZKO6VkO-R7Gq-Y2qvPkhg6dRqVwyUcnyFkJp3tXf27FfJ1tkLlwiYHkeSWDofItcCIqyaTEKKjO7px2Z94BeNKCITur2kUj7DGIidOqAQzDgm1ZVWoO7DAsYuCE5jsNu3Aix5a8jpa7Ay3jrAkmYJHszEX4pKCT2AnsC6ShMKSkO1hJztiREzyoFCEfXo8-_n-Dn_vIo_hxtvD1PdAR_xs1EvX-VKlON]--></g></svg>

<svg xmlns="http://www.w3.org/2000/svg" width="884" height="705" viewBox="0 0 884 705"><rect width="194" height="100.383" x="381" y="438.76" fill="#3D176E" rx="2.5" ry="2.5" style="stroke:#000d19;stroke-width:.5"/><circle cx="396" cy="458.654" r="11" fill="#ADD1B2" style="stroke:#181818;stroke-width:1"/><path d="M398.969 464.295q-.578.297-1.219.438-.64.156-1.344.156-2.5 0-3.828-1.64-1.312-1.657-1.312-4.782t1.312-4.781q1.328-1.656 3.828-1.656.703 0 1.344.156.656.156 1.219.453v2.719q-.625-.579-1.219-.844-.594-.281-1.219-.281-1.344 0-2.031 1.078-.687 1.062-.687 3.156t.687 3.172q.688 1.062 2.031 1.062.625 0 1.219-.265.594-.281 1.219-.86z"/><text x="415" y="464.54" fill="#D9B8FF" font-family="Helvetica" font-size="17" textLength="152">autoscaling_group</text><path d="M382 478.549h192" style="stroke:#000d19;stroke-width:.5"/><text x="392" y="500.544" fill="#D9B8FF" font-family="sans-serif" font-size="14" font-weight="bold" textLength="71">max_size</text><text x="463" y="500.544" fill="#D9B8FF" font-family="sans-serif" font-size="14" textLength="44">: int64</text><text x="392" y="526.841" fill="#D9B8FF" font-family="sans-serif" font-size="14" font-weight="bold" textLength="67">min_size</text><text x="459" y="526.841" fill="#D9B8FF" font-family="sans-serif" font-size="14" textLength="44">: int64</text><rect width="236" height="39.789" x="7" y="660.14" fill="#3D176E" rx="2.5" ry="2.5" style="stroke:#000d19;stroke-width:.5"/><circle cx="22" cy="680.034" r="11" fill="#ADD1B2" style="stroke:#181818;stroke-width:1"/><path d="M24.969 685.675q-.578.297-1.219.438-.64.156-1.344.156-2.5 0-3.828-1.64-1.312-1.657-1.312-4.782t1.312-4.781q1.328-1.657 3.828-1.657.703 0 1.344.157.656.156 1.219.453v2.719q-.625-.579-1.219-.844-.594-.281-1.219-.281-1.343 0-2.031 1.078-.687 1.062-.687 3.156t.687 3.172q.688 1.062 2.031 1.062.625 0 1.219-.265.594-.282 1.219-.86z"/><text x="41" y="685.92" fill="#D9B8FF" font-family="Helvetica" font-size="17" textLength="194">aws_autoscaling_group</text><rect width="399" height="39.789" x="278.5" y="660.14" fill="#3D176E" rx="2.5" ry="2.5" style="stroke:#000d19;stroke-width:.5"/><circle cx="293.5" cy="680.034" r="11" fill="#ADD1B2" style="stroke:#181818;stroke-width:1"/><path d="M296.469 685.675q-.578.297-1.219.438-.64.156-1.344.156-2.5 0-3.828-1.64-1.312-1.657-1.312-4.782t1.312-4.781q1.328-1.657 3.828-1.657.703 0 1.344.157.656.156 1.219.453v2.719q-.625-.579-1.219-.844-.594-.281-1.219-.281-1.344 0-2.031 1.078-.687 1.062-.687 3.156t.687 3.172q.688 1.062 2.031 1.062.625 0 1.219-.265.594-.282 1.219-.86z"/><text x="312.5" y="685.92" fill="#D9B8FF" font-family="Helvetica" font-size="17" textLength="357">azure_compute_virtual_machine_scale_set</text><rect width="165" height="39.789" x="712.5" y="660.14" fill="#3D176E" rx="2.5" ry="2.5" style="stroke:#000d19;stroke-width:.5"/><circle cx="727.5" cy="680.034" r="11" fill="#ADD1B2" style="stroke:#181818;stroke-width:1"/><path d="M730.469 685.675q-.578.297-1.219.438-.64.156-1.344.156-2.5 0-3.828-1.64-1.312-1.657-1.312-4.782t1.312-4.781q1.328-1.657 3.828-1.657.703 0 1.344.157.656.156 1.219.453v2.719q-.625-.579-1.219-.844-.594-.281-1.219-.281-1.343 0-2.031 1.078-.687 1.062-.687 3.156t.687 3.172q.688 1.062 2.031 1.062.625 0 1.219-.265.594-.282 1.219-.86z"/><text x="746.5" y="685.92" fill="#D9B8FF" font-family="Helvetica" font-size="17" textLength="123">gcp_autoscaler</text><rect width="227" height="310.758" x="364.5" y="7" fill="#3D176E" rx="2.5" ry="2.5" style="stroke:#000d19;stroke-width:.5"/><circle cx="433.25" cy="26.895" r="11" fill="#ADD1B2" style="stroke:#181818;stroke-width:1"/><path d="M436.219 32.535q-.578.297-1.219.438-.64.156-1.344.156-2.5 0-3.828-1.64-1.312-1.657-1.312-4.782t1.312-4.781q1.328-1.656 3.828-1.656.703 0 1.344.156.656.156 1.219.453v2.719q-.625-.578-1.219-.844-.594-.281-1.219-.281-1.344 0-2.031 1.078-.687 1.062-.687 3.156t.687 3.172q.688 1.062 2.031 1.062.625 0 1.219-.265.594-.281 1.219-.86z"/><text x="458.75" y="32.78" fill="#D9B8FF" font-family="Helvetica" font-size="17" textLength="71">resource</text><path d="M365.5 46.789h225" style="stroke:#000d19;stroke-width:.5"/><text x="375.5" y="68.784" fill="#D9B8FF" font-family="sans-serif" font-size="14" font-weight="bold" textLength="29">age</text><text x="404.5" y="68.784" fill="#D9B8FF" font-family="sans-serif" font-size="14" textLength="66">: duration</text><text x="375.5" y="95.081" fill="#D9B8FF" font-family="sans-serif" font-size="14" font-weight="bold" textLength="43">atime</text><text x="418.5" y="95.081" fill="#D9B8FF" font-family="sans-serif" font-size="14" textLength="70">: datetime</text><text x="375.5" y="121.378" fill="#D9B8FF" font-family="sans-serif" font-size="14" font-weight="bold" textLength="43">ctime</text><text x="418.5" y="121.378" fill="#D9B8FF" font-family="sans-serif" font-size="14" textLength="70">: datetime</text><text x="375.5" y="147.675" fill="#D9B8FF" font-family="sans-serif" font-size="14" font-weight="bold" textLength="14">id</text><text x="389.5" y="147.675" fill="#D9B8FF" font-family="sans-serif" font-size="14" textLength="48">: string</text><text x="375.5" y="173.972" fill="#D9B8FF" font-family="sans-serif" font-size="14" font-weight="bold" textLength="33">kind</text><text x="408.5" y="173.972" fill="#D9B8FF" font-family="sans-serif" font-size="14" textLength="48">: string</text><text x="375.5" y="200.269" fill="#D9B8FF" font-family="sans-serif" font-size="14" font-weight="bold" textLength="90">last_access</text><text x="465.5" y="200.269" fill="#D9B8FF" font-family="sans-serif" font-size="14" textLength="66">: duration</text><text x="375.5" y="226.565" fill="#D9B8FF" font-family="sans-serif" font-size="14" font-weight="bold" textLength="90">last_update</text><text x="465.5" y="226.565" fill="#D9B8FF" font-family="sans-serif" font-size="14" textLength="66">: duration</text><text x="375.5" y="252.862" fill="#D9B8FF" font-family="sans-serif" font-size="14" font-weight="bold" textLength="48">mtime</text><text x="423.5" y="252.862" fill="#D9B8FF" font-family="sans-serif" font-size="14" textLength="70">: datetime</text><text x="375.5" y="279.159" fill="#D9B8FF" font-family="sans-serif" font-size="14" font-weight="bold" textLength="43">name</text><text x="418.5" y="279.159" fill="#D9B8FF" font-family="sans-serif" font-size="14" textLength="48">: string</text><text x="375.5" y="305.456" fill="#D9B8FF" font-family="sans-serif" font-size="14" font-weight="bold" textLength="34">tags</text><text x="409.5" y="305.456" fill="#D9B8FF" font-family="sans-serif" font-size="14" textLength="171">: dictionary[string, string]</text><path fill="none" d="M478 336.06v102.36m0-120.36-6 18h12zM369.383 548.13c-73.33 39.28-155.913 83.51-208.193 111.52m224.06-120.02-18.7 3.21 5.666 10.578zm92.75 18v102.26m0-120.26-6 18h12zm98.749 9.221c65.85 39.28 138.801 82.789 185.761 110.799M561.29 539.63l12.385 14.374 6.147-10.306z" style="stroke:#ffaf37;stroke-width:2"/></svg>
